X:30
T:Broom, Green Broom
Z:Jack Campin, http://www.campin.me.uk/
S:Northumbrian Minstrelsy
M:6/8
L:1/8
K:G
D|G G G (B`A) G| G B c   d2
B|c c c  A G  A| D2  A   A2
D|G G G (B`A) B| G B d   d2
g|f e d  A d ^c| d3-     d2
d|g f g (d`c) B| e c  A (GF)
D|G G G (B`A) B|(G`B) d Hg2
e|d e d (c`B) A| G3-     G2|]

